src/lib/packages/icons/src/assets/filled/comment-notification.svg

<svg width="24" height="24" viewBox="0 0 24 24" fill="none" xmlns="http://www.w3.org/2000/svg">
<path d="M21 12.001C21 17.002 16.97 20.002 12 20.002C10.72 20.002 9.50991 19.802 8.40991 19.422C7.06991 20.852 4.87996 21.0419 3.45996 20.9919C3.02996 20.9819 2.83992 20.432 3.16992 20.152C4.25992 19.272 4.79995 18.1721 4.94995 17.2111C3.72995 15.8911 3 14.121 3 12C3 6.999 7.03 3.99902 12 3.99902C13.229 3.99902 14.4089 4.184 15.4829 4.547C15.6419 4.601 15.717 4.77701 15.666 4.93701C15.477 5.53701 15.4339 6.19296 15.6169 6.90796C15.9489 8.20196 17.047 9.22602 18.365 9.44702C19.018 9.55702 19.6459 9.49706 20.2009 9.28406C20.3649 9.22106 20.5539 9.29101 20.6089 9.45801C20.8679 10.235 21 11.083 21 12.001ZM21 6C21 4.895 20.104 4 19 4C17.896 4 17 4.895 17 6C17 7.105 17.896 8 19 8C20.104 8 21 7.105 21 6Z" fill="currentColor"/>
</svg>

<svg xmlns="http://www.w3.org/2000/svg" width="24" height="24" fill="none"><path fill="currentColor" d="M21 12.001c0 5.001-4.03 8.001-9 8.001-1.28 0-2.49-.2-3.59-.58-1.34 1.43-3.53 1.62-4.95 1.57-.43-.01-.62-.56-.29-.84 1.09-.88 1.63-1.98 1.78-2.94C3.73 15.891 3 14.12 3 12c0-5.001 4.03-8.001 9-8.001 1.229 0 2.409.185 3.483.548.159.054.234.23.183.39a3.522 3.522 0 0 0-.05 1.971c.333 1.294 1.431 2.318 2.749 2.539.653.11 1.28.05 1.836-.163.164-.063.353.007.408.174A8 8 0 0 1 21 12.001ZM21 6a2 2 0 1 0-4 0 2 2 0 0 0 4 0Z"/></svg>
